X:1
T:Title
%%score { 1 | 2 }
L:1/8
Q:1/4=108
M:3/4
K:C
V:1 treble nm="Grand Piano"
V:2 bass 
V:1
 [EG]4 [CE][EG] | [Ec]4 [EG][Gc] | d4 cB | [Ec]2 [EG]2 z2 | [FA]4 [FB][Ec] |[M:2/4] [Ec]4 | %6
w: D.~B.~Towner * *||||||
[M:1/4] [CEG][CE] |[M:3/4] [CEG]4 [B,DF][G,B,D] | [G,CE]6 | [CEG]4 [G,CE][G,EG] | [Ec]4 [EG][Gc] | %11
w: |||||
 d4 cB | [Ec]2 [EG]2 z2 | [FA]4 [FB][Ec] | [Ec]4 [EG][CE] | [CG]4 [G,B,F][K:bass][F,B,D] | [E,C]6 | %17
w: ||||||
 [CEG]4 [G,CE][G,EG] | [Ec]4 [EG][Ec] | d4 cd | [Ge][Ec]- [Ec]3 z | [Ac]4 [GB][FA] | %22
w: |||||
 [EG]4 [Gc][Gc] | d4 c[DB] | [Ec]6 |] %25
w: |||
V:2
 [C,C]4 [C,G,][C,G,] | [C,G,]4 [C,C][E,C] | [G,B,F]4 [G,CE][K:bass][G,D] | [C,G,]2 [C,C]2 z2 | %4
 [F,C]4 [D,G,][C,G,] |[M:2/4] [C,G,]4 |[M:1/4] C,C, |[M:3/4] G,,4 G,,G,, | C,6 | C,4 C,C, | %10
 [C,G,]4 [C,C][E,C] | [G,B,F]4 [G,CE][K:bass][G,D] | [C,G,]2 [C,C]2 z2 | [F,C]4 [D,G,][C,G,] | %14
 [C,G,]4 [C,C][C,G,] | [G,,E,]4 G,,G,, | C,6 | C,4 C,C, | [C,G,]4 [C,C][C,C] | %19
 [G,B,F]4 [A,CE][G,B,G] | [C,C][C,G,]- [C,G,]3 z | [F,A,]4 [F,B,][F,C] | [C,C]4 [E,C][E,C] | %23
 [F,A,F]4 [G,E][G,,G,] | [C,G,]6 |] %25

